X:1
T:Homeland (Booth), CM
T:Homeland (Booth), CM
T:Josiah Booth (1852-1929)
T:Public Domain Courtesy of the Cyber Hymnal™
C:Josiah Booth (1852-1929)
Z:Public Domain
Z:Courtesy of the Cyber Hymnal™
%%score ( 1 2 ) ( 3 4 )
L:1/8
Q:1/4=112
M:4/4
K:E
V:1 treble 
V:2 treble 
V:3 bass 
V:4 bass 
V:1
 [EB]2 | [GB]2 [Ee]2 [DB]2 [EG]2 | [EG]2 [FB]2 [EG]2 E2 | [CE]2 [Dc]2 [EB]2 E2 | [DF]6 [DB]2 | %5
 [EB]2 [Ge]2 [FB]2 [EG]2 | [EG]2 [DB]2 [B,E]2 B,2 | [A,A]2 [B,G]2 [EF]2 [DF]2 | E6 |] %9
V:2
 x2 | x8 | x6 E2 | x6 E2 | x8 | x8 | x6 B,2 | x8 | E6 |] %9
V:3
 [E,G,]2 | [E,B,]2 [G,B,]2 [F,A,]2 [E,B,]2 | [E,B,]2 [D,B,]2 [E,B,]2 [G,,B,]2 | %3
 [A,,C]2 [F,,F,A,]2 [G,,G,]2 [C,^A,]2 | [B,,B,]6 B,2 | [G,B,]2 [E,B,]2 [D,B,]2 [E,B,]2 | %6
 [C,E,]2 F,2 [G,,G,]2 [G,,E,]2 | [C,E,]2 [B,,E,]2 [A,,C]2 (B,A,) | [E,G,]6 |] %9
V:4
 x2 | x8 | x8 | x8 | x6 (B,A,) | x8 | x2 (B,,A,,) x4 | x6 B,,2 | x6 |] %9

